Adwaita++/status/16/network-cellular-error.svg

<svg height="16" width="16" xmlns="http://www.w3.org/2000/svg">
  <path d="m15 1-4 4h4zm-4 4-10 10h10z" fill="#474747" opacity=".3"/>
  <path class="warning" d="m12 6v4l.25 2h1.5l.25-2v-4zm0 7v2h2v-2z" fill="#4285f4"/>
</svg>

<svg xmlns="http://www.w3.org/2000/svg" width="16" height="16" version="1.1">
 <path style="fill:#474747;opacity:0.3" d="M 15 1 L 11 5 L 15 5 L 15 1 z M 11 5 L 1 15 L 11 15 L 11 5 z"/>
 <path style="fill:#4285f4" class="warning" d="M 12,6 V 10 L 12.25,12 H 13.75 L 14,10 V 6 Z M 12,13 V 15 H 14 V 13 Z"/>
</svg>
